static/fa/svgs/solid/face-grin-tears.svg

<svg xmlns="http://www.w3.org/2000/svg" viewBox="0 0 640 512"><!--! Font Awesome Free 6.1.1 by @fontawesome - https://fontawesome.com License - https://fontawesome.com/license/free (Icons: CC BY 4.0, Fonts: SIL OFL 1.1, Code: MIT License) Copyright 2022 Fonticons, Inc.--><path d="M548.6 371.4C506.4 454.8 419.9 512 319.1 512c-99 0-185.5-57.2-227.7-140.6 4.47-3 8.7-6.4 12.7-10.3 8.1-9 13.2-18.6 16.5-26.7 3.6-8.7 6.5-18.4 8.8-27.5 4.6-18.2 7.6-37.8 9.2-48.2 4-26.5-18.7-49.2-45.2-45.4-6.81 1-16.22 2.4-26.56 4.4C85.31 94.5 191.6 0 319.1 0c129.3 0 235.6 94.5 254.1 217.7-10.4-2-19.8-3.4-26.6-4.4-26.5-3.8-49.2 18.9-45.2 45.4.7 10.4 3.7 30 9.2 48.2 2.3 9.1 5.2 18.8 8.8 27.5 3.3 8.1 8.4 17.7 16.5 26.7 4 3.9 8.2 7.3 12.7 10.3zm-77.2-39.9c5-11.8-7-22.5-19.3-18.7-39.7 12.1-84.4 19-131.8 19-47.4 0-92.2-6.9-131.8-19-12.3-3.8-24.3 6.9-19.3 18.7C194.1 390.6 252.4 432 320.3 432c67.9 0 126.1-41.4 151.1-100.5zM281.6 228.8c2.1 2.8 5.7 3.9 8.9 2.8 3.3-1.1 4.6-4.2 4.6-7.6 0-17.9-5.8-35.6-15.7-48.8-9.8-13-23.9-23.2-40.3-23.2-14.6 0-28.7 10.2-38.5 23.2-9.9 13.2-17.5 30.9-17.5 48.8 0 3.4 3.1 6.5 6.4 7.6 3.2 1.1 6.8 0 8.9-2.8l.2-.3c.2-.2-.5-.5.7-.9-.2-.8 1.6-1.9 2.8-3.3 2.5-2.9 6-6.6 10.2-11.2 8.8-6.9 18.9-13.1 26.8-13.1 9.7 0 19.8 6.2 28.6 13.1 4.2 4.6 7.7 8.3 10.2 11.2 1.2 1.4 2.1 2.5 2.8 3.3.3.4.5.7.7.9l.2.3zm168.9 2.8c3.3-1.1 5.5-4.2 5.5-7.6 0-17.9-6.7-35.6-16.6-48.8-9.8-13-23.9-23.2-39.4-23.2s-29.6 10.2-39.4 23.2c-9.9 13.2-16.6 30.9-16.6 48.8 0 3.4 2.2 6.5 5.5 7.6 3.2 1.1 6.8 0 8.9-2.8l.2-.3c.2-.2-.5-.5.7-.9-.2-.8 1.6-1.9 2.8-3.3 2.5-2.9 6-6.6 10.2-11.2 8.8-6.9 18.9-13.1 27.7-13.1s18.9 6.2 27.7 13.1c4.2 4.6 7.7 8.3 10.2 11.2 1.2 1.4 2.1 2.5 2.8 3.3.3.4.5.7.7.9l.2.3c2.1 2.8 5.7 3.9 8.9 2.8zm-344.4 22.5c-2.2 21.5-10.52 70.2-24.67 84.3-.94 1-1.92 1.9-2.93 2.7-18.52 15.6-46.49 14.4-64.23-3.4-18.712-18.7-19.095-48.8-.72-67.1 8.64-8.7 30.14-15.2 50.5-20.5 12.97-1.9 25.48-3.9 33.89-5.1 5.36-.8 9.86 3.7 8.16 9.1zm455.4 87c-.8-.6-2.4-1.3-2.3-2-.2-.2-.4-.4-.6-.7-14.2-14.1-22.5-62.8-25.6-84.3-.8-5.4 3.7-9.9 9.1-9.1 1 .2 2.1.3 3.3.5 8.2 1.2 19.2 3 29.7 4.6 21.2 5.3 42.7 11.8 51.3 20.5 18.4 18.3 18 48.4-.7 67.1-18.6 17.8-45.7 19-64.2 3.4z"/></svg>

<svg xmlns="http://www.w3.org/2000/svg" viewBox="0 0 640 512"><!--! Font Awesome Free 6.1.1 by @fontawesome - https://fontawesome.com License - https://fontawesome.com/license/free (Icons: CC BY 4.0, Fonts: SIL OFL 1.1, Code: MIT License) Copyright 2022 Fonticons, Inc. --><path d="M548.6 371.4C506.4 454.8 419.9 512 319.1 512C220.1 512 133.6 454.8 91.4 371.4C95.87 368.4 100.1 365 104.1 361.1C112.2 352.1 117.3 342.5 120.6 334.4C124.2 325.7 127.1 316 129.4 306.9C134 288.7 137 269.1 138.6 258.7C142.6 232.2 119.9 209.5 93.4 213.3C86.59 214.3 77.18 215.7 66.84 217.7C85.31 94.5 191.6 0 319.1 0C448.4 0 554.7 94.5 573.2 217.7C562.8 215.7 553.4 214.3 546.6 213.3C520.1 209.5 497.4 232.2 501.4 258.7C502.1 269.1 505.1 288.7 510.6 306.9C512.9 316 515.8 325.7 519.4 334.4C522.7 342.5 527.8 352.1 535.9 361.1C539.9 365 544.1 368.4 548.6 371.4V371.4zM471.4 331.5C476.4 319.7 464.4 309 452.1 312.8C412.4 324.9 367.7 331.8 320.3 331.8C272.9 331.8 228.1 324.9 188.5 312.8C176.2 309 164.2 319.7 169.2 331.5C194.1 390.6 252.4 432 320.3 432C388.2 432 446.4 390.6 471.4 331.5H471.4zM281.6 228.8C283.7 231.6 287.3 232.7 290.5 231.6C293.8 230.5 295.1 227.4 295.1 224C295.1 206.1 289.3 188.4 279.4 175.2C269.6 162.2 255.5 152 239.1 152C224.5 152 210.4 162.2 200.6 175.2C190.7 188.4 183.1 206.1 183.1 224C183.1 227.4 186.2 230.5 189.5 231.6C192.7 232.7 196.3 231.6 198.4 228.8L198.4 228.8L198.6 228.5C198.8 228.3 198.1 228 199.3 227.6C199.1 226.8 200.9 225.7 202.1 224.3C204.6 221.4 208.1 217.7 212.3 213.1C221.1 206.2 231.2 200 239.1 200C248.8 200 258.9 206.2 267.7 213.1C271.9 217.7 275.4 221.4 277.9 224.3C279.1 225.7 280 226.8 280.7 227.6C281 228 281.2 228.3 281.4 228.5L281.6 228.8L281.6 228.8zM450.5 231.6C453.8 230.5 456 227.4 456 224C456 206.1 449.3 188.4 439.4 175.2C429.6 162.2 415.5 152 400 152C384.5 152 370.4 162.2 360.6 175.2C350.7 188.4 344 206.1 344 224C344 227.4 346.2 230.5 349.5 231.6C352.7 232.7 356.3 231.6 358.4 228.8L358.4 228.8L358.6 228.5C358.8 228.3 358.1 228 359.3 227.6C359.1 226.8 360.9 225.7 362.1 224.3C364.6 221.4 368.1 217.7 372.3 213.1C381.1 206.2 391.2 200 400 200C408.8 200 418.9 206.2 427.7 213.1C431.9 217.7 435.4 221.4 437.9 224.3C439.1 225.7 440 226.8 440.7 227.6C441 228 441.2 228.3 441.4 228.5L441.6 228.8L441.6 228.8C443.7 231.6 447.3 232.7 450.5 231.6V231.6zM106.1 254.1C103.9 275.6 95.58 324.3 81.43 338.4C80.49 339.4 79.51 340.3 78.5 341.1C59.98 356.7 32.01 355.5 14.27 337.7C-4.442 319-4.825 288.9 13.55 270.6C22.19 261.9 43.69 255.4 64.05 250.1C77.02 248.2 89.53 246.2 97.94 245C103.3 244.2 107.8 248.7 106.1 254.1V254.1zM561.5 341.1C560.7 340.5 559.1 339.8 559.2 339.1C559 338.9 558.8 338.7 558.6 338.4C544.4 324.3 536.1 275.6 533 254.1C532.2 248.7 536.7 244.2 542.1 245C543.1 245.2 544.2 245.3 545.4 245.5C553.6 246.7 564.6 248.5 575.1 250.1C596.3 255.4 617.8 261.9 626.4 270.6C644.8 288.9 644.4 319 625.7 337.7C607.1 355.5 580 356.7 561.5 341.1L561.5 341.1z"/></svg>
